icon_installer/data/icons/scalable/actions/show-ssd-symbolic.svg

<?xml version="1.0" encoding="UTF-8"?>
<svg height="16px" viewBox="0 0 16 16" width="16px" xmlns="http://www.w3.org/2000/svg">
    <path d="m 3.195312 0 c -1.203124 0 -2.195312 1 -2.195312 2.199219 v 11.601562 c 0 1.199219 0.992188 2.199219 2.195312 2.199219 h 9.609376 c 1.203124 0 2.195312 -1 2.195312 -2.199219 v -11.601562 c 0 -1.199219 -0.992188 -2.199219 -2.195312 -2.199219 z m 0 2 h 9.609376 c 0.125 0 0.195312 0.070312 0.195312 0.199219 v 11.601562 c 0 0.128907 -0.070312 0.199219 -0.195312 0.199219 h -9.609376 c -0.125 0 -0.195312 -0.070312 -0.195312 -0.199219 v -11.601562 c 0 -0.128907 0.070312 -0.199219 0.195312 -0.199219 z m 2.804688 1 v 1 h -1 v 1 h -0.953125 v 1 h 0.953125 v 1 h -0.953125 v 1 h 0.953125 v 1 h -0.953125 v 1 h 0.953125 v 1 h 1 v 1 h 1 v -1 h 1 v 1 h 1 v -1 h 1 v 1 h 1 v -2 h 1 v -1 h -1 v -1 h 1 v -1 h -1 v -1 h 1 v -1 h -1 v -2 h -1 v 1 h -1 v -1 h -1 v 1 h -1 v -1 z m 0 0" fill="#222222"/>
</svg>

<svg xmlns="http://www.w3.org/2000/svg" width="16" height="16"><path fill="#222" d="M3.195 0C1.992 0 1 1 1 2.2v11.6C1 15 1.992 16 3.195 16h9.61C14.008 16 15 15 15 13.8V2.2C15 1 14.008 0 12.805 0zm0 2h9.61c.125 0 .195.07.195.2v11.6c0 .13-.07.2-.195.2h-9.61C3.07 14 3 13.93 3 13.8V2.2c0-.13.07-.2.195-.2zM6 3v1H5v1h-.953v1H5v1h-.953v1H5v1h-.953v1H5v1h1v1h1v-1h1v1h1v-1h1v1h1v-2h1V9h-1V8h1V7h-1V6h1V5h-1V3h-1v1H9V3H8v1H7V3zm0 0"/></svg>
